X: 9315
T: Dancin' Dick
R: jig
M: 6/8
K: Ddorian
A|:ded fed|a_ba gfe|fdB c2e|gfe dcA|
ded fed|ded cAc|ded cAG|FDD D2A:|
|:~d3 dcd|efe dcB|cA^F GED|~C3 CB,C|
ded fed|a_ba gfe|cdc AGF|EDC D2A:|

